svg/editor/dividing_line_line.svg

<?xml version="1.0" encoding="UTF-8"?>
<svg width="24px" height="24px" viewBox="0 0 24 24" version="1.1" xmlns="http://www.w3.org/2000/svg" xmlns:xlink="http://www.w3.org/1999/xlink">
    <title>dividing_line_line</title>
    <g id="页面-1" stroke="none" stroke-width="1" fill="none" fill-rule="evenodd">
        <g id="Editor" transform="translate(-384.000000, -96.000000)" fill-rule="nonzero">
            <g id="dividing_line_line" transform="translate(384.000000, 96.000000)">
                 <path d="M24,0 L24,24 L0,24 L0,0 L24,0 Z M12.5934901,23.257841 L12.5819402,23.2595131 L12.5108777,23.2950439 L12.4918791,23.2987469 L12.4918791,23.2987469 L12.4767152,23.2950439 L12.4056548,23.2595131 C12.3958229,23.2563662 12.3870493,23.2590235 12.3821421,23.2649074 L12.3780323,23.275831 L12.360941,23.7031097 L12.3658947,23.7234994 L12.3769048,23.7357139 L12.4804777,23.8096931 L12.4953491,23.8136134 L12.4953491,23.8136134 L12.5071152,23.8096931 L12.6106902,23.7357139 L12.6232938,23.7196733 L12.6232938,23.7196733 L12.6266527,23.7031097 L12.609561,23.275831 C12.6075724,23.2657013 12.6010112,23.2592993 12.5934901,23.257841 L12.5934901,23.257841 Z M12.8583906,23.1452862 L12.8445485,23.1473072 L12.6598443,23.2396597 L12.6498822,23.2499052 L12.6498822,23.2499052 L12.6471943,23.2611114 L12.6650943,23.6906389 L12.6699349,23.7034178 L12.6699349,23.7034178 L12.678386,23.7104931 L12.8793402,23.8032389 C12.8914285,23.8068999 12.9022333,23.8029875 12.9078286,23.7952264 L12.9118235,23.7811639 L12.8776777,23.1665331 C12.8752882,23.1545897 12.8674102,23.1470016 12.8583906,23.1452862 L12.8583906,23.1452862 Z M12.1430473,23.1473072 C12.1332178,23.1423925 12.1221763,23.1452606 12.1156365,23.1525954 L12.1099173,23.1665331 L12.0757714,23.7811639 C12.0751323,23.7926639 12.0828099,23.8018602 12.0926481,23.8045676 L12.108256,23.8032389 L12.3092106,23.7104931 L12.3186497,23.7024347 L12.3186497,23.7024347 L12.3225043,23.6906389 L12.340401,23.2611114 L12.337245,23.2485176 L12.337245,23.2485176 L12.3277531,23.2396597 L12.1430473,23.1473072 Z" id="MingCute" fill-rule="nonzero"></path>
                <path d="M6,18 C6.55228,18 7,18.4477 7,19 C7,19.5523 6.55228,20 6,20 L4,20 C3.44772,20 3,19.5523 3,19 C3,18.4477 3.44772,18 4,18 L6,18 Z M13,18 C13.5523,18 14,18.4477 14,19 C14,19.5523 13.5523,20 13,20 L11,20 C10.4477,20 10,19.5523 10,19 C10,18.4477 10.4477,18 11,18 L13,18 Z M20,18 C20.5523,18 21,18.4477 21,19 C21,19.5523 20.5523,20 20,20 L18,20 C17.4477,20 17,19.5523 17,19 C17,18.4477 17.4477,18 18,18 L20,18 Z M20,11 C20.5523,11 21,11.4477 21,12 C21,12.51285 20.613973,12.9355092 20.1166239,12.9932725 L20,13 L4,13 C3.44772,13 3,12.5523 3,12 C3,11.48715 3.38604429,11.0644908 3.88337975,11.0067275 L4,11 L20,11 Z M6,4 C6.55228,4 7,4.44772 7,5 C7,5.55228 6.55228,6 6,6 L4,6 C3.44772,6 3,5.55228 3,5 C3,4.44772 3.44772,4 4,4 L6,4 Z M13,4 C13.5523,4 14,4.44772 14,5 C14,5.51283143 13.613973,5.93550653 13.1166239,5.9932722 L13,6 L11,6 C10.4477,6 10,5.55228 10,5 C10,4.48716857 10.386027,4.06449347 10.8833761,4.0067278 L11,4 L13,4 Z M20,4 C20.5523,4 21,4.44772 21,5 C21,5.51283143 20.613973,5.93550653 20.1166239,5.9932722 L20,6 L18,6 C17.4477,6 17,5.55228 17,5 C17,4.48716857 17.386027,4.06449347 17.8833761,4.0067278 L18,4 L20,4 Z" id="形状" fill="#09244B"></path>
            </g>
        </g>
    </g>
</svg>

<svg xmlns="http://www.w3.org/2000/svg" width="24" height="24"><g fill="none" fill-rule="nonzero"><path d="M24 0v24H0V0h24ZM12.593 23.258l-.011.002-.071.035-.02.004-.014-.004-.071-.035c-.01-.004-.019-.001-.024.005l-.004.01-.017.428.005.02.01.013.104.074.015.004.012-.004.104-.074.012-.016.004-.017-.017-.427c-.002-.01-.009-.017-.017-.018Zm.265-.113-.013.002-.185.093-.01.01-.003.011.018.43.005.012.008.007.201.093c.012.004.023 0 .029-.008l.004-.014-.034-.614c-.003-.012-.01-.02-.02-.022Zm-.715.002a.023.023 0 0 0-.027.006l-.006.014-.034.614c0 .012.007.02.017.024l.015-.002.201-.093.01-.008.004-.011.017-.43-.003-.012-.01-.01-.184-.092Z"/><path fill="#09244B" d="M6 18a1 1 0 1 1 0 2H4a1 1 0 1 1 0-2h2Zm7 0a1 1 0 1 1 0 2h-2a1 1 0 1 1 0-2h2Zm7 0a1 1 0 1 1 0 2h-2a1 1 0 1 1 0-2h2Zm0-7a1 1 0 0 1 .117 1.993L20 13H4a1 1 0 0 1-.117-1.993L4 11h16ZM6 4a1 1 0 0 1 0 2H4a1 1 0 0 1 0-2h2Zm7 0a1 1 0 0 1 .117 1.993L13 6h-2a1 1 0 0 1-.117-1.993L11 4h2Zm7 0a1 1 0 0 1 .117 1.993L20 6h-2a1 1 0 0 1-.117-1.993L18 4h2Z"/></g></svg>
